X:499
T: Des Burschen Tracht (204a), S.445
N: T0387
O: Luxemburg
S: Singendes Volk, Esch-Alzette, 1937 posth.]
N: Heffingen, fff Marie Berchem, 1906
R: Tanz-, Spiellied]
M: 6/8
L: 1/16
K: G
 | c4c2G2G2G2 | A4A2G6 |
c4c2B4B2 | A2B2A2G4
c2 | c2B2c2d6 |
c4ccB4B2 | A2B2A2d6 |
c4ccB4B2 | A2B2A2z6

@@@ Tune index: 8553
